; generated by PrusaSlicer 2.3.3+win64 on 2022-08-11 at 07:11:53 UTC

; 

; external perimeters extrusion width = 0.60mm
; perimeters extrusion width = 0.50mm
; infill extrusion width = 0.50mm
; solid infill extrusion width = 0.50mm
; top infill extrusion width = 0.45mm
; first layer extrusion width = 0.42mm

M73 P0 R139
M73 Q0 S141
M201 X1000 Y1000 Z200 E5000 ; sets maximum accelerations, mm/sec^2
M203 X200 Y200 Z12 E120 ; sets maximum feedrates, mm/sec
M204 P1250 R1250 T1250 ; sets acceleration (P, T) and retract acceleration (R), mm/sec^2
M205 X8.00 Y8.00 Z0.40 E4.50 ; sets the jerk limits, mm/sec
M205 S0 T0 ; sets the minimum extruding and travel feed rate, mm/sec
M107
;TYPE:Custom
M862.3 P "MK3S" ; printer model check
M862.1 P0.4 ; nozzle diameter check
M115 U3.9.2 ; tell printer latest fw version
G90 ; use absolute coordinates
M83 ; extruder relative mode
M104 S230 ; set extruder temp
M140 S85 ; set bed temp
M190 S85 ; wait for bed temp
M109 S230 ; wait for extruder temp
G28 W ; home all without mesh bed level
G80 ; mesh bed leveling
G1 Y-3.0 F1000.0 ; go outside print area
G92 E0.0
G1 X60.0 E9.0 F1000.0 ; intro line
M73 Q0 S140
G1 X100.0 E12.5 F1000.0 ; intro line
G92 E0.0
M221 S95

; Don't change E values below. Excessive value can damage the printer.

M907 E538 ; set extruder motor current
G21 ; set units to millimeters
G90 ; use absolute coordinates
M83 ; use relative distances for extrusion
M900 K0.08 ; Filament gcode LA 1.5
M900 K45 ; Filament gcode LA 1.0
;LAYER_CHANGE
;Z:0.2
;HEIGHT:0.2
;BEFORE_LAYER_CHANGE
G92 E0.0
;0.2


G1 E-1.40000 F2100.000
G1 Z0.200 F10800.000
;AFTER_LAYER_CHANGE
;0.2
G1 Z0.400
G1 X76.732 Y67.750
G1 Z0.200
G1 E1.40000 F2100.000
M204 S1000
;TYPE:Skirt
;WIDTH:0.42
G1 F1200.000
G1 X77.487 Y67.623 E0.02402
G1 X172.504 Y67.623 E2.97917
G1 X173.402 Y67.801 E0.02872
G1 X174.164 Y68.303 E0.02860
G1 X174.682 Y69.058 E0.02872
G1 X174.877 Y69.953 E0.02872
G1 X174.877 Y140.030 E2.19722
G1 X174.809 Y140.566 E0.01692
G1 X174.623 Y141.069 E0.01680
G1 X174.327 Y141.520 E0.01692
G1 X173.941 Y141.891 E0.01680
G1 X173.268 Y142.250 E0.02390
G1 X172.513 Y142.377 E0.02402
G1 X77.489 Y142.377 E2.97941
G1 X76.949 Y142.312 E0.01704
G1 X76.442 Y142.128 E0.01692
G1 X75.986 Y141.832 E0.01704
G1 X75.609 Y141.441 E0.01704
G1 X75.250 Y140.768 E0.02390
G1 X75.123 Y140.016 E0.02390
G1 X75.123 Y69.985 E2.19579
G1 X75.189 Y69.445 E0.01704
G1 X75.373 Y68.938 E0.01692
G1 X75.668 Y68.486 E0.01692
G1 X76.059 Y68.109 E0.01704
G1 X76.679 Y67.779 E0.02202
; printing object Body2 id:0 copy 0
;WIPE_START
G1 F8640.000
G1 X77.487 Y67.623 E-0.19008
G1 X82.424 Y67.623 E-1.13992
;WIPE_END
G1 E-0.07000 F2100.000
G1 Z0.400 F10800.000
G1 X91.036 Y102.267
G1 Z0.200
G1 E1.40000 F2100.000
;TYPE:Perimeter
G1 F1200.000
G1 X91.448 Y102.213 E0.01305
G1 X163.552 Y102.213 E2.26074
G1 X163.964 Y102.267 E0.01305
G1 X164.397 Y102.446 E0.01468
G1 X164.768 Y102.732 E0.01468
G1 X165.054 Y103.103 E0.01468
G1 X165.233 Y103.536 E0.01468
G1 X165.287 Y103.948 E0.01305
G1 X165.287 Y106.052 E0.06594
G1 X165.233 Y106.464 E0.01305
G1 X165.054 Y106.897 E0.01468
G1 X164.768 Y107.268 E0.01468
G1 X164.397 Y107.554 E0.01468
G1 X163.964 Y107.733 E0.01468
G1 X163.552 Y107.787 E0.01305
G1 X91.448 Y107.787 E2.26074
G1 X91.036 Y107.733 E0.01305
G1 X90.603 Y107.554 E0.01468
G1 X90.232 Y107.268 E0.01468
G1 X89.946 Y106.897 E0.01468
G1 X89.767 Y106.464 E0.01468
G1 X89.713 Y106.052 E0.01305
G1 X89.713 Y103.948 E0.06594
G1 X89.767 Y103.536 E0.01305
G1 X89.946 Y103.103 E0.01468
G1 X90.232 Y102.732 E0.01468
G1 X90.603 Y102.446 E0.01468
G1 X90.980 Y102.290 E0.01280
G1 X91.125 Y102.639 F10800.000
;TYPE:External perimeter
G1 F1200.000
G1 X91.473 Y102.590 E0.01103
G1 X163.527 Y102.590 E2.25919
M73 P0 R138
G1 X163.866 Y102.635 E0.01072
G1 X164.207 Y102.776 E0.01157
G1 X164.500 Y103.000 E0.01157
G1 X164.724 Y103.293 E0.01157
G1 X164.865 Y103.634 E0.01157
G1 X164.910 Y103.973 E0.01072
G1 X164.910 Y106.027 E0.06439
G1 X164.865 Y106.366 E0.01072
G1 X164.724 Y106.707 E0.01157
G1 X164.500 Y107.000 E0.01157
G1 X164.207 Y107.224 E0.01157
G1 X163.866 Y107.365 E0.01157
G1 X163.527 Y107.410 E0.01072
G1 X91.473 Y107.410 E2.25919
G1 X91.134 Y107.365 E0.01072
G1 X90.793 Y107.224 E0.01157
G1 X90.500 Y107.000 E0.01157
G1 X90.276 Y106.707 E0.01157
G1 X90.135 Y106.366 E0.01157
G1 X90.090 Y106.027 E0.01072
G1 X90.090 Y103.973 E0.06439
G1 X90.135 Y103.634 E0.01072
G1 X90.276 Y103.293 E0.01157
G1 X90.500 Y103.000 E0.01157
G1 X90.793 Y102.776 E0.01157
G1 X91.069 Y102.662 E0.00936
G1 X91.214 Y102.298 F10800.000
;WIPE_START
G1 F8640.000
G1 X91.473 Y102.590 E-0.09473
G1 X96.823 Y102.590 E-1.23527
;WIPE_END
G1 E-0.07000 F2100.000
G1 Z0.400 F10800.000
G1 X78.287 Y70.787
G1 Z0.200
G1 E1.40000 F2100.000
;TYPE:Perimeter
G1 F1200.000
G1 X171.713 Y70.787 E2.92930
G1 X171.713 Y139.213 E2.14544
G1 X78.287 Y139.213 E2.92930
G1 X78.287 Y70.847 E2.14356
G1 X77.910 Y70.410 F10800.000
;TYPE:External perimeter
G1 F1200.000
G1 X172.090 Y70.410 E2.95295
M73 Q0 S139
G1 X172.090 Y139.590 E2.16909
G1 X77.910 Y139.590 E2.95295
G1 X77.910 Y70.470 E2.16721
G1 X78.301 Y70.494 F10800.000
;WIPE_START
G1 F8640.000
G1 X83.670 Y70.466 E-1.33000
;WIPE_END
G1 E-0.07000 F2100.000
G1 Z0.400 F10800.000
G1 X171.600 Y71.665
G1 Z0.200
G1 E1.40000 F2100.000
;TYPE:Solid infill
;WIDTH:0.420998
G1 F1200.000
G1 X171.005 Y71.070 E0.02644
G1 X170.470 Y71.070 E0.01681
G1 X171.430 Y72.030 E0.04267
G1 X171.430 Y72.564 E0.01681
G1 X169.936 Y71.070 E0.06644
G1 X169.401 Y71.070 E0.01681
G1 X171.430 Y73.099 E0.09021
G1 X171.430 Y73.634 E0.01681
G1 X168.866 Y71.070 E0.11398
G1 X168.332 Y71.070 E0.01681
G1 X171.430 Y74.168 E0.13775
G1 X171.430 Y74.703 E0.01681
G1 X167.797 Y71.070 E0.16152
G1 X167.262 Y71.070 E0.01681
G1 X171.430 Y75.238 E0.18530
G1 X171.430 Y75.772 E0.01681
G1 X166.728 Y71.070 E0.20907
G1 X166.193 Y71.070 E0.01681
G1 X171.430 Y76.307 E0.23284
G1 X171.430 Y76.842 E0.01681
G1 X165.658 Y71.070 E0.25661
G1 X165.124 Y71.070 E0.01681
G1 X171.430 Y77.376 E0.28038
G1 X171.430 Y77.911 E0.01681
G1 X164.589 Y71.070 E0.30415
G1 X164.054 Y71.070 E0.01681
G1 X171.430 Y78.446 E0.32793
G1 X171.430 Y78.980 E0.01681
G1 X163.520 Y71.070 E0.35170
G1 X162.985 Y71.070 E0.01681
G1 X171.430 Y79.515 E0.37547
G1 X171.430 Y80.050 E0.01681
G1 X162.450 Y71.070 E0.39924
G1 X161.915 Y71.070 E0.01681
G1 X171.430 Y80.585 E0.42301
G1 X171.430 Y81.119 E0.01681
G1 X161.381 Y71.070 E0.44678
G1 X160.846 Y71.070 E0.01681
G1 X171.430 Y81.654 E0.47055
M73 P1 R138
M73 Q1 S139
G1 X171.430 Y82.189 E0.01681
G1 X160.311 Y71.070 E0.49433
G1 X159.777 Y71.070 E0.01681
G1 X171.430 Y82.723 E0.51810
G1 X171.430 Y83.258 E0.01681
G1 X159.242 Y71.070 E0.54187
G1 X158.707 Y71.070 E0.01681
G1 X171.430 Y83.793 E0.56564
G1 X171.430 Y84.327 E0.01681
G1 X158.173 Y71.070 E0.58941
G1 X157.638 Y71.070 E0.01681
G1 X171.430 Y84.862 E0.61318
G1 X171.430 Y85.397 E0.01681
G1 X157.103 Y71.070 E0.63696
G1 X156.569 Y71.070 E0.01681
G1 X171.430 Y85.931 E0.66073
G1 X171.430 Y86.466 E0.01681
G1 X156.034 Y71.070 E0.68450
G1 X155.499 Y71.070 E0.01681
G1 X171.430 Y87.001 E0.70827
G1 X171.430 Y87.535 E0.01681
G1 X154.965 Y71.070 E0.73204
M73 P1 R137
G1 X154.430 Y71.070 E0.01681
G1 X171.430 Y88.070 E0.75581
G1 X171.430 Y88.605 E0.01681
G1 X153.895 Y71.070 E0.77958
G1 X153.361 Y71.070 E0.01681
G1 X171.430 Y89.139 E0.80336
G1 X171.430 Y89.674 E0.01681
G1 X152.826 Y71.070 E0.82713
G1 X152.291 Y71.070 E0.01681
G1 X171.430 Y90.209 E0.85090
G1 X171.430 Y90.743 E0.01681
G1 X151.757 Y71.070 E0.87467
G1 X151.222 Y71.070 E0.01681
G1 X171.430 Y91.278 E0.89844
G1 X171.430 Y91.813 E0.01681
G1 X150.687 Y71.070 E0.92221
G1 X150.152 Y71.070 E0.01681
G1 X171.430 Y92.348 E0.94598
G1 X171.430 Y92.882 E0.01681
G1 X149.618 Y71.070 E0.96976
G1 X149.083 Y71.070 E0.01681
G1 X171.430 Y93.417 E0.99353
G1 X171.430 Y93.952 E0.01681
G1 X148.548 Y71.070 E1.01730
G1 X148.014 Y71.070 E0.01681
G1 X171.430 Y94.486 E1.04107
G1 X171.430 Y95.021 E0.01681
G1 X147.479 Y71.070 E1.06484
G1 X146.944 Y71.070 E0.01681
G1 X171.430 Y95.556 E1.08861
G1 X171.430 Y96.090 E0.01681
G1 X146.410 Y71.070 E1.11239
G1 X145.875 Y71.070 E0.01681
G1 X171.430 Y96.625 E1.13616
M73 Q1 S138
G1 X171.430 Y97.160 E0.01681
G1 X145.340 Y71.070 E1.15993
G1 X144.806 Y71.070 E0.01681
G1 X171.430 Y97.694 E1.18370
G1 X171.430 Y98.229 E0.01681
G1 X144.271 Y71.070 E1.20747
G1 X143.736 Y71.070 E0.01681
G1 X171.430 Y98.764 E1.23124
G1 X171.430 Y99.298 E0.01681
G1 X143.202 Y71.070 E1.25501
G1 X142.667 Y71.070 E0.01681
G1 X171.430 Y99.833 E1.27879
G1 X171.430 Y100.368 E0.01681
G1 X142.132 Y71.070 E1.30256
G1 X141.598 Y71.070 E0.01681
G1 X171.430 Y100.902 E1.32633
G1 X171.430 Y101.437 E0.01681
G1 X141.063 Y71.070 E1.35010
G1 X140.528 Y71.070 E0.01681
G1 X171.430 Y101.972 E1.37387
G1 X171.430 Y102.507 E0.01681
G1 X139.993 Y71.070 E1.39764
G1 X139.459 Y71.070 E0.01681
G1 X171.430 Y103.041 E1.42142
G1 X171.430 Y103.576 E0.01681
G1 X138.924 Y71.070 E1.44519
G1 X138.389 Y71.070 E0.01681
G1 X171.430 Y104.111 E1.46896
G1 X171.430 Y104.645 E0.01681
G1 X137.855 Y71.070 E1.49273
G1 X137.320 Y71.070 E0.01681
G1 X171.430 Y105.180 E1.51650
M73 P1 R136
G1 X171.430 Y105.715 E0.01681
G1 X136.785 Y71.070 E1.54027
G1 X136.251 Y71.070 E0.01681
G1 X171.430 Y106.249 E1.56404
G1 X171.430 Y106.784 E0.01681
G1 X135.716 Y71.070 E1.58782
G1 X135.181 Y71.070 E0.01681
G1 X171.430 Y107.319 E1.61159
G1 X171.430 Y107.853 E0.01681
G1 X134.647 Y71.070 E1.63536
M73 P2 R136
M73 Q2 S138
G1 X134.112 Y71.070 E0.01681
G1 X171.430 Y108.388 E1.65913
G1 X171.430 Y108.923 E0.01681
G1 X133.577 Y71.070 E1.68290
G1 X133.043 Y71.070 E0.01681
G1 X163.953 Y101.981 E1.37426
G1 X164.038 Y101.992 E0.00269
G1 X164.540 Y102.199 E0.01706
G1 X164.970 Y102.530 E0.01706
G1 X165.301 Y102.960 E0.01706
G1 X165.508 Y103.462 E0.01706
G1 X165.519 Y103.547 E0.00269
G1 X171.430 Y109.457 E0.26278
G1 X171.430 Y109.992 E0.01681
G1 X165.570 Y104.132 E0.26054
G1 X165.570 Y104.667 E0.01681
G1 X171.430 Y110.527 E0.26054
G1 X171.430 Y111.061 E0.01681
G1 X165.570 Y105.201 E0.26054
G1 X165.570 Y105.736 E0.01681
G1 X171.430 Y111.596 E0.26054
G1 X171.430 Y112.131 E0.01681
G1 X165.547 Y106.247 E0.26158
G1 X165.508 Y106.538 E0.00922
G1 X165.448 Y106.683 E0.00494
G1 X171.430 Y112.665 E0.26596
G1 X171.430 Y113.200 E0.01681
G1 X165.287 Y107.057 E0.27311
G1 X165.055 Y107.360 E0.01199
G1 X171.430 Y113.735 E0.28343
M73 Q2 S137
G1 X171.430 Y114.270 E0.01681
G1 X164.778 Y107.618 E0.29574
G1 X164.540 Y107.801 E0.00945
G1 X164.460 Y107.834 E0.00272
G1 X171.430 Y114.804 E0.30990
G1 X171.430 Y115.339 E0.01681
G1 X164.082 Y107.990 E0.32671
G1 X163.620 Y108.063 E0.01469
G1 X171.430 Y115.874 E0.34724
G1 X171.430 Y116.408 E0.01681
G1 X163.092 Y108.070 E0.37072
G1 X162.557 Y108.070 E0.01681
G1 X171.430 Y116.943 E0.39449
G1 X171.430 Y117.478 E0.01681
G1 X162.022 Y108.070 E0.41826
G1 X161.488 Y108.070 E0.01681
G1 X171.430 Y118.012 E0.44203
G1 X171.430 Y118.547 E0.01681
G1 X160.953 Y108.070 E0.46580
G1 X160.418 Y108.070 E0.01681
G1 X171.430 Y119.082 E0.48957
G1 X171.430 Y119.616 E0.01681
G1 X159.884 Y108.070 E0.51335
G1 X159.349 Y108.070 E0.01681
G1 X171.430 Y120.151 E0.53712
G1 X171.430 Y120.686 E0.01681
G1 X158.814 Y108.070 E0.56089
G1 X158.280 Y108.070 E0.01681
G1 X171.430 Y121.220 E0.58466
G1 X171.430 Y121.755 E0.01681
G1 X157.745 Y108.070 E0.60843
G1 X157.210 Y108.070 E0.01681
G1 X171.430 Y122.290 E0.63220
G1 X171.430 Y122.824 E0.01681
G1 X156.676 Y108.070 E0.65598
G1 X156.141 Y108.070 E0.01681
G1 X171.430 Y123.359 E0.67975
G1 X171.430 Y123.894 E0.01681
G1 X155.606 Y108.070 E0.70352
G1 X155.071 Y108.070 E0.01681
G1 X171.430 Y124.429 E0.72729
G1 X171.430 Y124.963 E0.01681
G1 X154.537 Y108.070 E0.75106
G1 X154.002 Y108.070 E0.01681
G1 X171.430 Y125.498 E0.77483
G1 X171.430 Y126.033 E0.01681
G1 X153.467 Y108.070 E0.79860
G1 X152.933 Y108.070 E0.01681
G1 X171.430 Y126.567 E0.82238
G1 X171.430 Y127.102 E0.01681
G1 X152.398 Y108.070 E0.84615
G1 X151.863 Y108.070 E0.01681
G1 X171.430 Y127.637 E0.86992
G1 X171.430 Y128.171 E0.01681
G1 X151.329 Y108.070 E0.89369
G1 X150.794 Y108.070 E0.01681
G1 X171.430 Y128.706 E0.91746
G1 X171.430 Y129.241 E0.01681
G1 X150.259 Y108.070 E0.94123
G1 X149.725 Y108.070 E0.01681
G1 X171.430 Y129.775 E0.96500
G1 X171.430 Y130.310 E0.01681
G1 X149.190 Y108.070 E0.98878
G1 X148.655 Y108.070 E0.01681
G1 X171.430 Y130.845 E1.01255
G1 X171.430 Y131.379 E0.01681
G1 X148.121 Y108.070 E1.03632
M73 P2 R135
G1 X147.586 Y108.070 E0.01681
G1 X171.430 Y131.914 E1.06009
G1 X171.430 Y132.449 E0.01681
G1 X147.051 Y108.070 E1.08386
G1 X146.517 Y108.070 E0.01681
G1 X171.430 Y132.983 E1.10763
G1 X171.430 Y133.518 E0.01681
G1 X145.982 Y108.070 E1.13141
G1 X145.447 Y108.070 E0.01681
G1 X171.430 Y134.053 E1.15518
G1 X171.430 Y134.587 E0.01681
G1 X144.913 Y108.070 E1.17895
G1 X144.378 Y108.070 E0.01681
G1 X171.430 Y135.122 E1.20272
G1 X171.430 Y135.657 E0.01681
G1 X143.843 Y108.070 E1.22649
G1 X143.308 Y108.070 E0.01681
G1 X171.430 Y136.192 E1.25026
G1 X171.430 Y136.726 E0.01681
G1 X142.774 Y108.070 E1.27403
G1 X142.239 Y108.070 E0.01681
G1 X171.430 Y137.261 E1.29781
G1 X171.430 Y137.796 E0.01681
G1 X141.704 Y108.070 E1.32158
G1 X141.170 Y108.070 E0.01681
G1 X171.430 Y138.330 E1.34535
M73 Q2 S136
G1 X171.430 Y138.865 E0.01681
G1 X140.635 Y108.070 E1.36912
G1 X140.100 Y108.070 E0.01681
G1 X170.961 Y138.930 E1.37202
G1 X170.426 Y138.930 E0.01681
G1 X139.566 Y108.070 E1.37202
G1 X139.031 Y108.070 E0.01681
G1 X169.891 Y138.930 E1.37202
G1 X169.357 Y138.930 E0.01681
G1 X138.496 Y108.070 E1.37202
M73 P3 R135
M73 Q3 S136
G1 X137.962 Y108.070 E0.01681
G1 X168.822 Y138.930 E1.37202
G1 X168.287 Y138.930 E0.01681
G1 X137.427 Y108.070 E1.37202
G1 X136.892 Y108.070 E0.01681
G1 X167.753 Y138.930 E1.37202
G1 X167.218 Y138.930 E0.01681
G1 X136.358 Y108.070 E1.37202
G1 X135.823 Y108.070 E0.01681
G1 X166.683 Y138.930 E1.37202
G1 X166.148 Y138.930 E0.01681
G1 X135.288 Y108.070 E1.37202
G1 X134.754 Y108.070 E0.01681
G1 X165.614 Y138.930 E1.37202
G1 X165.079 Y138.930 E0.01681
G1 X134.219 Y108.070 E1.37202
G1 X133.684 Y108.070 E0.01681
G1 X164.544 Y138.930 E1.37202
G1 X164.010 Y138.930 E0.01681
G1 X133.149 Y108.070 E1.37202
M73 P3 R134
G1 X132.615 Y108.070 E0.01681
G1 X163.475 Y138.930 E1.37202
G1 X162.940 Y138.930 E0.01681
G1 X132.080 Y108.070 E1.37202
G1 X131.545 Y108.070 E0.01681
G1 X162.406 Y138.930 E1.37202
G1 X161.871 Y138.930 E0.01681
G1 X131.011 Y108.070 E1.37202
G1 X130.476 Y108.070 E0.01681
G1 X161.336 Y138.930 E1.37202
G1 X160.802 Y138.930 E0.01681
G1 X129.941 Y108.070 E1.37202
G1 X129.407 Y108.070 E0.01681
G1 X160.267 Y138.930 E1.37202
G1 X159.732 Y138.930 E0.01681
G1 X128.872 Y108.070 E1.37202
G1 X128.337 Y108.070 E0.01681
G1 X159.198 Y138.930 E1.37202
G1 X158.663 Y138.930 E0.01681
G1 X127.803 Y108.070 E1.37202
G1 X127.268 Y108.070 E0.01681
G1 X158.128 Y138.930 E1.37202
G1 X157.594 Y138.930 E0.01681
G1 X126.733 Y108.070 E1.37202
M73 Q3 S135
G1 X126.199 Y108.070 E0.01681
G1 X157.059 Y138.930 E1.37202
G1 X156.524 Y138.930 E0.01681
G1 X125.664 Y108.070 E1.37202
G1 X125.129 Y108.070 E0.01681
G1 X155.989 Y138.930 E1.37202
G1 X155.455 Y138.930 E0.01681
G1 X124.595 Y108.070 E1.37202
G1 X124.060 Y108.070 E0.01681
G1 X154.920 Y138.930 E1.37202
G1 X154.385 Y138.930 E0.01681
G1 X123.525 Y108.070 E1.37202
G1 X122.991 Y108.070 E0.01681
G1 X153.851 Y138.930 E1.37202
G1 X153.316 Y138.930 E0.01681
G1 X122.456 Y108.070 E1.37202
G1 X121.921 Y108.070 E0.01681
G1 X152.781 Y138.930 E1.37202
G1 X152.247 Y138.930 E0.01681
G1 X121.386 Y108.070 E1.37202
G1 X120.852 Y108.070 E0.01681
G1 X151.712 Y138.930 E1.37202
G1 X151.177 Y138.930 E0.01681
G1 X120.317 Y108.070 E1.37202
G1 X119.782 Y108.070 E0.01681
G1 X150.643 Y138.930 E1.37202
G1 X150.108 Y138.930 E0.01681
G1 X119.248 Y108.070 E1.37202
G1 X118.713 Y108.070 E0.01681
G1 X149.573 Y138.930 E1.37202
M73 P4 R133
G1 X149.039 Y138.930 E0.01681
G1 X118.178 Y108.070 E1.37202
M73 Q4 S135
G1 X117.644 Y108.070 E0.01681
G1 X148.504 Y138.930 E1.37202
G1 X147.969 Y138.930 E0.01681
G1 X117.109 Y108.070 E1.37202
G1 X116.574 Y108.070 E0.01681
G1 X147.435 Y138.930 E1.37202
G1 X146.900 Y138.930 E0.01681
G1 X116.040 Y108.070 E1.37202
G1 X115.505 Y108.070 E0.01681
